X: 2871
T: Barn Dance
R: barndance
M: 4/4
K: Dmajor
A>F|:D2 d>A F2 A>F|G2 g2- g2 e>g|f>ad>f e>gc>e|1 d2 d>c d>A (3GFE:|2 d2 (3edc d2||
A>c|e2 c>e g2 e>g|f>ad>f e2 (3ABc|(3efe c>e (3gag (3efg|f<ad>f e2 A>F|
D2 d>A F2 (3AGF|G2 g2- g2 (3efg|f<ad>f e<gc>e|d2 (3ddc d2||

